assets/efishery/keramba-jaring-apung.svg

<svg width="24" height="25" viewBox="0 0 24 25" fill="none" xmlns="http://www.w3.org/2000/svg">
<path fill-rule="evenodd" clip-rule="evenodd" d="M11.0459 4.30229C11.1649 4.26831 11.2904 4.26427 11.4113 4.29056L22.9113 6.79056C23.2504 6.86428 23.4947 7.16104 23.5018 7.50802C23.5089 7.85499 23.2771 8.16155 22.9413 8.24915L21.7885 8.54987L21.8072 8.55412C22.721 8.76181 23.4507 9.51422 23.4994 10.4801C23.5484 11.4494 22.893 12.2671 21.9972 12.5522L12.2194 15.6633C11.7791 15.8034 11.303 15.8099 10.8589 15.6824L1.57001 13.0158C0.678732 12.7599 0.00195312 11.9799 0.00195312 11.0234C0.00195312 10.3929 0.296108 9.83899 0.751953 9.46145V8.7944L0.57824 8.75304C0.246449 8.67404 0.00973883 8.38113 0.00214109 8.04014C-0.0054566 7.69916 0.217971 7.39599 0.545914 7.30229L11.0459 4.30229ZM1.98391 11.574C1.89343 11.548 1.81628 11.5104 1.75195 11.4651V10.5818C1.81628 10.5365 1.89343 10.4989 1.98391 10.4729L3.75195 9.9653V12.0816L1.98391 11.574ZM19.5265 7.58977L18.6128 7.82812L17.752 7.63247V7.204L19.5265 7.58977ZM16.752 6.98661V7.4052L14.752 6.95065V6.55182L16.752 6.98661ZM13.752 6.33443L11.752 5.89965V6.28612C11.8451 6.29581 11.9378 6.31107 12.0294 6.3319L13.752 6.72338V6.33443ZM10.752 5.94631V6.39514L8.75195 6.96931V6.51774L10.752 5.94631ZM7.75195 6.80345V7.25639L5.75195 7.83055V7.37488L7.75195 6.80345ZM4.75195 7.66059L3.71291 7.95746L4.58588 8.16531L4.75195 8.11763V7.66059ZM11.2728 7.80621L7.55743 8.87282L11.2437 9.7505L15.4616 8.65018L11.697 7.7946C11.557 7.76278 11.4094 7.767 11.2728 7.80621ZM4.75195 9.74678V12.3687L6.75195 12.9428V10.223L4.75195 9.74678ZM7.75195 10.4611V13.2299L10.752 14.0911V11.1754L7.75195 10.4611ZM11.752 11.1681V14.2378L11.7646 14.2339L14.752 13.2834V10.3855L11.752 11.1681ZM17.752 12.3288V9.60289L15.752 10.1246V12.9652L17.752 12.3288ZM21.5424 11.1228L18.752 12.0106V9.39799L21.4748 10.0168C21.8183 10.0949 21.9907 10.3445 22.0014 10.5557C22.0118 10.7634 21.8699 11.0186 21.5424 11.1228Z" fill="#1D1D1D"/>
<path fill-rule="evenodd" clip-rule="evenodd" d="M23.3718 14.6895C22.9535 13.5613 21.6834 13.019 20.5645 13.3887L11.4715 16.3931L2.87423 13.8301C1.74489 13.4935 0.490717 14.0718 0.108524 15.2143C-0.280853 16.3783 0.417705 17.5669 1.56241 17.9082L10.851 20.6772C11.3 20.8111 11.7818 20.8041 12.2267 20.6571L22.0041 17.4266C23.1397 17.0514 23.7986 15.8407 23.3718 14.6895ZM21.0351 14.813C21.4452 14.6775 21.8485 14.8958 21.9654 15.211C22.0737 15.5033 21.9269 15.8723 21.5335 16.0023L11.7561 19.2329C11.6028 19.2835 11.4348 19.286 11.2795 19.2397L1.99095 16.4707C1.59087 16.3514 1.4326 15.9845 1.53105 15.6902C1.63668 15.3744 2.03026 15.1438 2.4457 15.2676L4.52501 15.8875C4.50636 16.1068 4.50195 16.3217 4.50195 16.5239C4.50195 16.662 4.61388 16.7739 4.75195 16.7739C4.89002 16.7739 5.00195 16.662 5.00195 16.5239C5.00195 16.3601 5.00522 16.1959 5.01563 16.0338L7.53479 16.7848C7.50793 17.0389 7.50195 17.2895 7.50195 17.5235C7.50195 17.6616 7.61388 17.7735 7.75195 17.7735C7.89002 17.7735 8.00195 17.6616 8.00195 17.5235C8.00195 17.3252 8.0067 17.126 8.02322 16.9304L11.2688 17.8979C11.4158 17.9418 11.5727 17.9395 11.7184 17.8913L15.4969 16.6429C15.5006 16.7705 15.502 16.898 15.502 17.0244C15.502 17.1625 15.6139 17.2744 15.752 17.2744C15.89 17.2744 16.002 17.1625 16.002 17.0244C16.002 16.848 15.9995 16.6652 15.9912 16.4795L18.4923 15.6532C18.4994 15.7762 18.502 15.8998 18.502 16.0235C18.502 16.1616 18.6139 16.2735 18.752 16.2735C18.89 16.2735 19.002 16.1616 19.002 16.0235C19.002 15.8526 18.9975 15.674 18.9821 15.4913L21.0351 14.813Z" fill="#1D1D1D"/>
</svg>

<svg viewBox="0 0 24 25" xmlns="http://www.w3.org/2000/svg">
  <path fill-rule="evenodd" clip-rule="evenodd" d="M11.046 4.302a.75.75 0 0 1 .365-.011l11.5 2.5a.75.75 0 0 1 .03 1.458l-1.152.3.018.005c.914.208 1.644.96 1.692 1.926.05.97-.606 1.787-1.502 2.072l-9.778 3.111c-.44.14-.916.147-1.36.02L1.57 13.015C.679 12.76.002 11.98.002 11.023c0-.63.294-1.184.75-1.562v-.667l-.174-.041a.75.75 0 0 1-.032-1.45l10.5-3zm-9.062 7.272a.77.77 0 0 1-.232-.109v-.883a.77.77 0 0 1 .232-.11l1.768-.507v2.117l-1.768-.508zM19.526 7.59l-.913.238-.861-.196v-.428l1.774.386zm-2.774-.603v.418l-2-.454v-.4l2 .436zm-3-.653-2-.434v.386c.093.01.186.025.277.046l1.723.391v-.389zm-3-.388v.45l-2 .573v-.451l2-.572zm-3 .857v.453l-2 .575v-.456l2-.572zm-3 .858-1.04.296.874.208.166-.047V7.66zm6.52.145L7.558 8.873l3.687.878 4.218-1.1-3.765-.856a.858.858 0 0 0-.424.011zm-6.52 1.94v2.623l2 .574v-2.72l-2-.476zm3 .715v2.769l3 .861v-2.916l-3-.714zm4 .707v3.07l.013-.004 2.987-.95v-2.899l-3 .783zm6 1.16V9.604l-2 .522v2.84l2-.636zm3.79-1.205-2.79.888V9.398l2.723.619c.343.078.516.328.526.539.01.207-.131.463-.459.567z"/>
  <path fill-rule="evenodd" clip-rule="evenodd" d="M23.372 14.69c-.419-1.129-1.689-1.671-2.808-1.301l-9.092 3.004-8.598-2.563c-1.13-.337-2.383.242-2.765 1.384-.39 1.164.309 2.353 1.453 2.694l9.289 2.77c.449.133.93.126 1.376-.02l9.777-3.231c1.136-.376 1.795-1.586 1.368-2.737zm-2.337.123c.41-.136.814.083.93.398.109.292-.038.661-.431.791l-9.778 3.23a.8.8 0 0 1-.476.008l-9.29-2.77c-.4-.119-.557-.485-.459-.78.106-.316.5-.546.915-.422l2.079.62c-.019.219-.023.434-.023.636a.25.25 0 1 0 .5 0c0-.164.003-.328.014-.49l2.519.75a7.027 7.027 0 0 0-.033.74.25.25 0 1 0 .5 0c0-.199.005-.398.021-.594l3.246.968a.749.749 0 0 0 .45-.007l3.778-1.248c.004.127.005.255.005.381a.25.25 0 1 0 .5 0c0-.176-.002-.359-.01-.544l2.5-.827c.007.123.01.247.01.37a.25.25 0 1 0 .5 0c0-.17-.005-.349-.02-.532l2.053-.678z"/>
</svg>
